X: 14418
T: Galway Rambler, The
R: reel
M: 4/4
K: Gmajor
(3GGG dG eGdG|(3GGG dB AGEF|GFGA BABd|gedB AGEF|
(3GGG dG eGdG|(3GGG dB AGEF|GFGA BABd|gedB A2 Bd||
gfgb a2ab|gabg agef|~g3 b a2ab|gedB A2 Bd|
gabg gabg|gabg a2ga|bgag (3efg fa|gedB AGEF||

